src/assets/images/back-arrow.svg

<svg width="44" height="44" viewBox="0 0 44 44" fill="none" xmlns="http://www.w3.org/2000/svg">
<g clip-path="url(#clip0_81_332)">
<path fill-rule="evenodd" clip-rule="evenodd" d="M24.7994 9.42307C25.3635 9.98716 25.3635 10.9017 24.7994 11.4658L19.5618 16.7035H29.5556C31.9819 16.7035 34.3087 17.6673 36.0244 19.383C37.74 21.0986 38.7038 23.4254 38.7038 25.8517C38.7038 28.2779 37.74 30.6048 36.0244 32.3204C34.3087 34.036 31.9819 34.9999 29.5556 34.9999H27.6297C26.8319 34.9999 26.1852 34.3532 26.1852 33.5554C26.1852 32.7577 26.8319 32.111 27.6297 32.111H29.5556C31.2157 32.111 32.8078 31.4515 33.9816 30.2777C35.1554 29.1038 35.8149 27.5118 35.8149 25.8517C35.8149 24.1916 35.1554 22.5996 33.9816 21.4257C32.8078 20.2519 31.2157 19.5924 29.5556 19.5924H19.5613L24.7994 24.8305C25.3635 25.3946 25.3635 26.3092 24.7994 26.8733C24.2353 27.4374 23.3208 27.4374 22.7567 26.8733L15.0574 19.174C15.0325 19.1493 15.0085 19.1238 14.9855 19.0974C14.9152 19.0169 14.8553 18.9305 14.8059 18.8399C14.6935 18.6345 14.6296 18.3987 14.6296 18.148C14.6296 17.7382 14.8003 17.3683 15.0744 17.1054L22.7567 9.42307C23.3208 8.85898 24.2353 8.85898 24.7994 9.42307ZM15.1696 11.4658C15.7337 10.9017 15.7337 9.98716 15.1696 9.42307C14.6055 8.85898 13.6909 8.85898 13.1268 9.42307L5.42307 17.1268C4.85898 17.6909 4.85898 18.6055 5.42307 19.1696L13.1268 26.8733C13.6909 27.4374 14.6055 27.4374 15.1696 26.8733C15.7337 26.3092 15.7337 25.3946 15.1696 24.8305L8.48721 18.1482L15.1696 11.4658Z" fill="white"/>
</g>
<defs>
<clipPath id="clip0_81_332">
<rect width="44" height="44" fill="white"/>
</clipPath>
</defs>
</svg>

<svg width="44" height="44" fill="none" xmlns="http://www.w3.org/2000/svg"><g clip-path="url(#a)"><path fill-rule="evenodd" clip-rule="evenodd" d="M24.8 9.423a1.444 1.444 0 0 1 0 2.043l-5.238 5.237h9.994a9.148 9.148 0 1 1 0 18.297H27.63a1.444 1.444 0 1 1 0-2.889h1.926a6.26 6.26 0 0 0 0-12.519H19.56l5.238 5.239a1.444 1.444 0 0 1-2.042 2.042l-7.7-7.699a1.444 1.444 0 0 1 .017-2.069l7.683-7.682a1.444 1.444 0 0 1 2.042 0Zm-9.63 2.043a1.444 1.444 0 1 0-2.043-2.043l-7.704 7.704a1.445 1.445 0 0 0 0 2.043l7.704 7.703a1.444 1.444 0 0 0 2.043-2.043l-6.683-6.682 6.683-6.682Z" fill="#fff"/></g><defs><clipPath id="a"><path fill="#fff" d="M0 0h44v44H0z"/></clipPath></defs></svg>
